assets/svg/ref_background.svg

<svg fill="none" height="230" viewBox="0 0 347 230" width="347" xmlns="http://www.w3.org/2000/svg" xmlns:xlink="http://www.w3.org/1999/xlink"><mask id="a" height="230" maskUnits="userSpaceOnUse" width="347" x="0" y="0"><rect fill="#fff" height="230" rx="5" width="346" x=".5"/></mask><rect fill="#145fd8" height="230" rx="5" width="346" x=".5"/><g clip-rule="evenodd" fill-rule="evenodd" mask="url(#a)" stroke="#fff"><path d="m319.5 246c51.362 0 93-41.638 93-93s-41.638-93-93-93-93 41.638-93 93 41.638 93 93 93z" opacity=".1" stroke-width="70"/><path d="m54 43c29.5472 0 53.5-23.9528 53.5-53.5s-23.9528-53.5-53.5-53.5-53.5 23.9528-53.5 53.5 23.9528 53.5 53.5 53.5z" opacity=".1" stroke-width="50"/></g></svg>

<svg width="347" height="230" viewBox="0 0 347 230" fill="none" xmlns="http://www.w3.org/2000/svg">
<rect x="0.5" width="346" height="230" rx="5" fill="#145FD8"/>
<mask id="mask0" mask-type="alpha" maskUnits="userSpaceOnUse" x="0" y="0" width="347" height="230">
<rect x="0.5" width="346" height="230" rx="5" fill="white"/>
</mask>
<g mask="url(#mask0)">
</g>
<mask id="mask1" mask-type="alpha" maskUnits="userSpaceOnUse" x="0" y="0" width="347" height="230">
<rect x="0.5" width="346" height="230" rx="5" fill="white"/>
</mask>
<g mask="url(#mask1)">
<path opacity="0.1" fill-rule="evenodd" clip-rule="evenodd" d="M319.5 246C370.862 246 412.5 204.362 412.5 153C412.5 101.638 370.862 60 319.5 60C268.138 60 226.5 101.638 226.5 153C226.5 204.362 268.138 246 319.5 246Z" stroke="white" stroke-width="70"/>
<path opacity="0.1" fill-rule="evenodd" clip-rule="evenodd" d="M54 43C83.5472 43 107.5 19.0472 107.5 -10.5C107.5 -40.0472 83.5472 -64 54 -64C24.4528 -64 0.5 -40.0472 0.5 -10.5C0.5 19.0472 24.4528 43 54 43Z" stroke="white" stroke-width="50"/>
</g>
</svg>
